X:1
T:Ave Maria
T:Mamerts Celminskis
T:Ave Maria
C:Mamerts Celminskis
%%score { ( 1 2 5 6 ) | ( 3 4 7 8 ) }
L:1/8
Q:1/4=80
M:4/4
K:F
V:1 treble nm="P1"
V:2 treble 
V:5 treble 
V:6 treble 
V:3 bass 
V:4 bass 
V:7 bass 
V:8 bass 
V:1
!p!"^Andante sostenuto" A4 c2!<(! c2!<)! |!>(! d4!>)! A4 | (B2 cd) c2!>(! B2 | B4!>)! A4 | %4
w: A- ve Ma-|ri- a,|a- * * ve Ma-|ri- a,|
w: ||||
 A4 G2 G2 | G4 G4 | (c2 de) d2 c2 | =B4!mp! c4 | c2 A2 G2 F2 | G6 A2 | B2 d2 c3 B | A8 | %12
w: gra- ti- a|ple- na,|Do- * * mi- nus|te- cum:|be- ne- dic- ta|tu in|mu- li- e- ri-|bus,|
w: ||||||||
!mf! A4 A2 A2 | c6 A2 | F2 F2 G2 A2 | B6"^-" A2 |"^rit.""^-""^-" G8 |!>(! !fermata!F8!>)! | %18
w: et be- ne-|dic- tus|fruc- tus ven- tris|tu- i|Je-|sus.|
w: ||||||
!f! f4 e2!f! c2 | d4 d4 | c6"^-" d2 | (B3"^-" A) !fermata!A4 |!pp! c4 B2!<(! F2!<)! | A4!>(! G4 | %24
w: |San- cta|* Ma-|Ma- ter i,|o- ra pro|no- bis,|
w: San- cta Ma-|ri- a,|Ma- ter|De- * i,|||
 c3!>)! c (cB) (cd) | A3 A G4 |"^molto  crescendo"!<(! B4 A2 G2 | F4 A4!<)! | d3 d c2 B2 | A4 c4 | %30
w: no- bis pec- * ca- *|to- ri- bus,|nunc, et in|ho- ra,|ho- ra mor- tis|nos- trae,|
w: ||||||
 f4 e2 d2 | c4 c4 |!f! f3 f e2"^dim." d2 | c4!>)!!>(! A4 |!pp! z4!pp! _A2 A2 | _A2 A2 A2 A2 | %36
w: nunc, et in|ho- ra,|ho- ra mor- tis|nos- trae,|ho- ra|mor- tis nos- trae.|
w: ||||||
!<(! (=A4!<)! c4) |!>(! !fermata!c8!>)! |] %38
w: A- *|men.|
w: ||
V:2
 F4 G2 G2 | F4 F4 | (G2 E2) F2 G2 | G4 F4 | D4 D2 D2 | (C2 F2) E4 | (E2 F2) G2 G2 | G4 G4 | %8
 F2 F2 (DE) F2 | E6 E2 | F2 F2 F2 E2 | F8 | F4 E2 E2 | F6 E2 | D2 D2 D2 D2 | (D4 G2) F2 | %16
 (F2 E2 D2 E2) | F8 | z8 | A2 G^F A2 G2- | G2 =FE G2 F2 | DD (EF) F4 | F4 F2 F2 | F4 E4 | %24
 F3 F F2 F2 | F3 F E4 | G4 E2 E2 | D4 E4 | F3 F E2 G2 | F4 G4 | A4 A2 F2 | (F2 E2) (F2 G2) | %32
 A3 A A2 F2 | F4 F4 | z4 F2 F2 | F2 F2 F2 F2 | (F4 E4) | F8 |] %38
V:3
!p!!<(! C4 C2 C2!<)! | A,4 D4 | D2 B,2 A,2!>(! D2 | C4!>)! C4 | C2 =B,2 B,2 B,2 | G,2 =B,2 C4 | %6
!<(! C4 =B,2 C2!<)! | F4!mp! E4 | A,2 C2 B,2 A,2 | C6 C2 | D2 B,2 A,2 G,2 | F,8 |!mf! D4 E2 E2 | %13
 C6 C2 | A,2 A,2 G,2 ^F,2 | G,4 C2 C2 | C4 B,4- | B,2 G,2 !fermata!A,4 | z8 | z8 | z8 | z8 | %22
!pp! A,4 G,2 A,2 | C4 C4 | A,3 A, A,G, A,B, | C3 C C4 | D4 C2 B,2 | A,4 A,4 | B,2 A,2 G,2 C2 | %29
 C4 C4 | D4 C2 B,2 | C2 B,2 A,2!f! C2 | D3 D C2 B,2 | C4 C4 | z4!pp! _D2 D2 | C2 C2 _C2 C2 | %36
 =C4 B,4 | A,8 |] %38
V:4
 F,4 E,2 E,2 | D,4 D,4 | G,4 F,2 F,2 | E,4 F,4 | F,4 F,2 F,2 | E,2 D,2 C,4 | A,2- _A,2 G,F, E,2 | %7
 D,2 G,2 C,4 | z8 | z8 | z8 | z8 | D,4 C,2 C,2 | A,,6 C,2 | D,2 C,2 B,,2 D,2 | G,2 F,2 E,2 F,2 | %16
 C,8 | !fermata!F,8 | x8 | x8 | x8 | x8 | z8 | z8 | z8 | z8 | G,4 C,2 C,2 | D,4 C,4 | %28
 B,,3 B,, C,2 E,2 | F,4 E,4 | D,4 A,2 B,2 | A,2 G,2 F,2 E,2 | D,3 D, A,2 B,2 | A,4 F,4 | %34
 z4 _D,2 D,2 | _D,2 D,2 D,2 D,2 | C,8 | !fermata!F,8 |] %38
V:5
 x8 | x8 | x8 | x8 | x8 | x8 | x8 | x8 | x8 | x8 | x8 | x8 | x8 | x8 | x8 | x8 | x8 | x8 | x8 | %19
 x8 | x8 | x8 | x8 | x8 | x8 | x8 | x8 | x8 | x8 | x8 | x8 | x8 | x8 | x8 | _A4 x4 | x8 | x8 | %37
 x8 |] %38
V:6
 x8 | x8 | x8 | x8 | x8 | x8 | x8 | x8 | x8 | x8 | x8 | x8 | x8 | x8 | x8 | x8 | x8 | x8 | x8 | %19
 x8 | x8 | x8 | x8 | x8 | x8 | x8 | x8 | x8 | x8 | x8 | x8 | x8 | x8 | x8 | F4 x4 | x8 | x8 | x8 |] %38
V:7
 x8 | x8 | x8 | x8 | x8 | x8 | x8 | x8 | x8 | x8 | x8 | x8 | x8 | x8 | x8 | x8 | x8 | x8 | x8 | %19
 x8 | x8 | x8 | x8 | x8 | x8 | x8 | x8 | x8 | x8 | x8 | x8 | x8 | x8 | x8 | _A,4 x4 | x8 | x8 | %37
 x8 |] %38
V:8
 x8 | x8 | x8 | x8 | x8 | x8 | x8 | x8 | x8 | x8 | x8 | x8 | x8 | x8 | x8 | x8 | x8 | x8 | x8 | %19
 x8 | x8 | x8 | x8 | x8 | x8 | x8 | x8 | x8 | x8 | x8 | x8 | x8 | x8 | x8 | _D,4 x4 | x8 | x8 | %37
 x8 |] %38

